X:1176
T:Emperor of Germany's March.
M:C
L:1/8
Q:1/2=72
I: :: :|
Z:Jack Campin * www.campin.me.uk * 2009
K:D
[V:1] d2d>d d2A2|defe d4  |f2f>f f2d2| abag f4  |
[V:2] z8        |z8       |d2d>d d2A2| fgfe d4  |
%
[V:1] abag  f2f2|gagf e4  |fgfe  dagf| e3 d d4 :|
[V:2] fgfe  d2cd|efed c2A2|dedA  Ffed| c3 d d4 :|
%
[V:1] a2a>a a2f2|agfg a4  |f2f>f f2d2| edcB A4  |
[V:2] f2f>f f2d2|fede f2d2|d2d>d d2A2| cBAB c2e2|
%
[V:1] abag  fgaf|gagf efge|fgfe  dagf|Te3 d d4 :|
[V:2] fgfe  defd|efed cdec|dedA  Ffed|Tc3 d d4 :|
<end>
<start>
